app/client/src/assets/icons/blueprintjs/16px/layout-grid.svg

<svg xmlns="http://www.w3.org/2000/svg" xml:space="preserve" viewBox="0 0 16 16"><path fill-rule="evenodd" d="M2 12c-1.1 0-2 .9-2 2s.9 2 2 2 2-.9 2-2-.9-2-2-2zm0-6C.9 6 0 6.9 0 8s.9 2 2 2 2-.9 2-2-.9-2-2-2zm0-6C.9 0 0 .9 0 2s.9 2 2 2 2-.9 2-2-.9-2-2-2zm12 4c1.1 0 2-.9 2-2s-.9-2-2-2-2 .9-2 2 .9 2 2 2zm0 2c-1.1 0-2 .9-2 2s.9 2 2 2 2-.9 2-2-.9-2-2-2zM8 0C6.9 0 6 .9 6 2s.9 2 2 2 2-.9 2-2-.9-2-2-2zm6 12c-1.1 0-2 .9-2 2s.9 2 2 2 2-.9 2-2-.9-2-2-2zM8 6c-1.1 0-2 .9-2 2s.9 2 2 2 2-.9 2-2-.9-2-2-2zm0 6c-1.1 0-2 .9-2 2s.9 2 2 2 2-.9 2-2-.9-2-2-2z" clip-rule="evenodd"/></svg>

<?xml version="1.0" encoding="utf-8"?>
<!-- Generator: Adobe Illustrator 17.1.0, SVG Export Plug-In . SVG Version: 6.00 Build 0)  -->
<!DOCTYPE svg PUBLIC "-//W3C//DTD SVG 1.1//EN" "http://www.w3.org/Graphics/SVG/1.1/DTD/svg11.dtd">
<svg version="1.1" id="Layer_1" xmlns="http://www.w3.org/2000/svg" xmlns:xlink="http://www.w3.org/1999/xlink" x="0px" y="0px"
	 viewBox="0 0 16 16" enable-background="new 0 0 16 16" xml:space="preserve">
<g id="layout_grid_3_">
	<g>
		<path fill-rule="evenodd" clip-rule="evenodd" d="M2,12c-1.1,0-2,0.9-2,2c0,1.1,0.9,2,2,2s2-0.9,2-2C4,12.9,3.1,12,2,12z M2,6
			C0.9,6,0,6.9,0,8c0,1.1,0.9,2,2,2s2-0.9,2-2C4,6.9,3.1,6,2,6z M2,0C0.9,0,0,0.9,0,2s0.9,2,2,2s2-0.9,2-2S3.1,0,2,0z M14,4
			c1.1,0,2-0.9,2-2s-0.9-2-2-2s-2,0.9-2,2S12.9,4,14,4z M14,6c-1.1,0-2,0.9-2,2c0,1.1,0.9,2,2,2s2-0.9,2-2C16,6.9,15.1,6,14,6z M8,0
			C6.9,0,6,0.9,6,2s0.9,2,2,2s2-0.9,2-2S9.1,0,8,0z M14,12c-1.1,0-2,0.9-2,2c0,1.1,0.9,2,2,2s2-0.9,2-2C16,12.9,15.1,12,14,12z M8,6
			C6.9,6,6,6.9,6,8c0,1.1,0.9,2,2,2s2-0.9,2-2C10,6.9,9.1,6,8,6z M8,12c-1.1,0-2,0.9-2,2c0,1.1,0.9,2,2,2s2-0.9,2-2
			C10,12.9,9.1,12,8,12z"/>
	</g>
</g>
</svg>
